!!!COM: Charles Gounod
!!!CNT: Francais
!!!TXO: Francais
!!!OTL: Envoi de Fleurs
!!!LYR: E/mile Augier
!!!ENC: Jacob Pegg
!!!YOR: Romantic French Song 1830-1870 -David Tunley, ed.,
!!!YOR: New York: Garland Publishing, Inc., 1995, Vol. 5
!!!ODT: 1869/
!!NB: Vocal melody and text only encoded.
!!NB: First instance of melodic material only encoded.
**kern	**silbe
*clef G2	*
*k[b-e-a-]	*
*M2/4	*
*MM[allegretto]	*
!!created: 6/11/03 10:04
!!proofed and posted: 6/11/03 10:24
!!edit time: 19 min.
=8	=8
4r	.
8r	.
{8g	{Si
=9	=9
8g	l'on
8g	veut
8f	sa-
8f	-voir
=10	=10
8a-	qui
8a-	m'en-
[4g	-voi-
=11	=11
8g]}	-e}
{8g	{Ces
8f	bel-
8f	-les
=12	=12
4b-}	fleurs,}
8r	.
{8b-	{El-
=13	=13
8cc	-les
8cc	me
8a-	vien-
8a-	-nent
=14	=14
8b-	d'ou\
8b-	la
[4g	joi-
=15	=15
8g]}	-e}
{8g	{Et
8b-	les
8an	dou-
=16	=16
4g}	-leurs,}
8r	.
{8b-	{El-
=17	=17
8b-	-les
8b-	me
8an	vien-
8an	-nent
=18	=18
8g	d'ou\
8g	ma
[4f	vi-
=19	=19
8f]}	-e}
{8b-	{Pend
8cc	de/-
8f	-sor-
=20	=20
4dd}	-mais,}
8r	.
{8b-	{De
=21	=21
8ee-	cel-
8dd	-le
8dd	la\
8cc	pour
=22	=22
8b-	qui
8a-	j'ou-
[4g	-bli-
=23	=23
8g]}	-e}
{8e-	{Ceux
8f	que
8g	j'ai-
=24	=24
[4e-	-mais!
8e-]}	|}
8r	.
*-	*-
